svgs/sharp-regular/landmark.svg

<svg xmlns="http://www.w3.org/2000/svg" viewBox="0 0 512 512"><!--! Font Awesome Pro 6.6.0 by @fontawesome - https://fontawesome.com License - https://fontawesome.com/license (Commercial License) Copyright 2024 Fonticons, Inc. --><path d="M0 192l48 0 416 0 48 0 0-48L256 0 0 144l0 48zM256 55.1L414.1 144 97.9 144 256 55.1zM112 224l-48 0 0 160-8 0-24 0 0 48 24 0 400 0 24 0 0-48-24 0-8 0 0-160-48 0 0 160-64 0 0-160-48 0 0 160-64 0 0-160-48 0 0 160-64 0 0-160zM0 464l0 48 24 0 464 0 24 0 0-48-24 0L24 464 0 464z"/></svg>

<svg xmlns="http://www.w3.org/2000/svg" viewBox="0 0 512 512"><!--! Font Awesome Pro 6.4.2 by @fontawesome - https://fontawesome.com License - https://fontawesome.com/license (Commercial License) Copyright 2023 Fonticons, Inc. --><path d="M0 192H48 464h48V144L256 0 0 144v48zM256 55.1L414.1 144H97.9L256 55.1zM112 224H64V384H56 32v48H56 456h24V384H456h-8V224H400V384H336V224H288V384H224V224H176V384H112V224zM0 464v48H24 488h24V464H488 24 0z"/></svg>
